X: 37106
T: Silvermines, The
R: reel
M: 4/4
K: Eminor
G3A BEE2|B2Ac BEEE|G3A BcBA|1 Bdef edBA:|2 Beed e3f||
g3e fedA|BddB d2ef|1 g3e f2BA|Beed e3f:|2 gfge fdBA|Bdef edBA||

